X:1
T:Title
%%score { ( 1 4 ) | ( 2 3 ) }
L:1/8
M:4/4
K:Ab
V:1 treble nm="Grand Piano"
V:4 treble 
V:2 bass 
V:3 bass 
V:1
 z4 z2[Q:1/4=100] E>[G,DE] | [A,CA]2 [A,DA]>[A,DA] [A,EA]2 cB | [A,CA]2 [DFA]2 [CEA]2 c>d | %3
 e2 c2 e2 d>c | B2 =A2 B2 E>E | A2 [DA]2 [EA]2 [Ec]>[DB] | [A,CA]2 [DFA]2 [CEA]2 cd | %7
 e2 [Ec]2 [Fe][Fd][EFc][DFB] | [CEA]2 [DEG]2 [CEA]4 | z2 [Ae]6 | z2 e6 | ccee [Bd]2 [Ac]2 | %12
 [GB]6 z2 | z2 [Gd]6 | z2 [Gd]4 z2 | c2 c2 c2 e>e |[M:9/8] e2 [A=d]- [Ad] [Ge]2- [Ge]E>[DE] | %17
[M:4/4] [CEA]2 [DEA]2 [CEA]2 [Ec]>[DB] | [A,CA]2 [DFA]2 [CEA]2 c>d | e2 [Ec]2 [Fe][Fd][CFc][DFB] | %20
[M:7/8] z2 [EG]2 z z2 |] %21
V:2
 z4 z2 E,>E, | A,,2 B,,>B,, C,2 [E,G,D]2 | A,,2 A,,2 A,,2[K:treble] [A,E]>[A,B,E] | %3
 [A,CA]2 [A,EA]2 [A,CA]2[K:bass] [G,B,E]>[A,E] | [E,G,E]2 [E,_G,E]2 [E,=G,E]2 [E,G,]>[E,G,D] | %5
 [A,C]2 [B,,A,]2 [C,A,]2 [E,G,]>[E,G,] | z4 z2[K:treble] [A,A]2 | %7
 [A,CA]2[K:bass] [A,,A,]2 [D,=A,][D,B,]D,D, | E,2 E,2 A,,4 | A,2 [A,C]>A, A,4 | z2 A6 | %11
 [A,EA][A,EA][A,CA][A,CA][K:bass] [G,E]2 [A,E]2 | [E,E]2 E,2 E,2 z2 | E,2 E,>E, E,4 | %14
 E,2 E,>E, E,2 [E,E]>[E,E] | [A,EA]2 [A,EA]2 [A,EA]2 [A,CA]>[A,CA] | %16
[M:9/8] [B,G]2[K:bass] [B,,B,]- [B,,B,] [E,B,]2- [E,B,]E,>E, |[M:4/4] A,,2 B,,2 C,2 [E,G,]>[E,G,] | %18
 A,,2 A,,2 A,,2[K:treble] [A,E]>[A,B,E] | [A,CA]2[K:bass] [A,,A,]2 [D,=A,][D,B,]D,D, | %20
[M:7/8] E,2 z D A,,3 |] %21
V:3
 x8 | x8 | x6[K:treble] x2 | x6[K:bass] x2 | x8 | x8 | A,,2 A,,2 A,,2[K:treble] z B, | %7
 x2[K:bass] x6 | x8 | x8 | [A,EA]2 [A,C]>A, A,4 | x4[K:bass] x4 | x8 | x8 | x8 | x8 | %16
[M:9/8] x2[K:bass] x7 |[M:4/4] x8 | x6[K:treble] x2 | x2[K:bass] x6 |[M:7/8] z2 E,2 z z2 |] %21
V:4
 x8 | x8 | x8 | x8 | x8 | x8 | x8 | x8 | x8 | [EAc]2 z z/ C/ C4 | c2 z z/ C/ C4 | x8 | %12
 z2 E2 E2 z2 | [EGB]2 E>E E4 | [EGB]2 E>E E2 [Gd]>[Gd] | x8 |[M:9/8] x9 |[M:4/4] x8 | x8 | x8 | %20
[M:7/8] [CEA]2 B, z [CEA]3 |] %21

